icons/folder-vscode-open.svg

<?xml version="1.0" encoding="UTF-8"?>
<svg clip-rule="evenodd" fill-rule="evenodd" stroke-linejoin="round" stroke-miterlimit="1.4142" version="1.1" viewBox="0 0 24 24" xml:space="preserve" xmlns="http://www.w3.org/2000/svg"><path d="m19 20h-15c-1.11 0-2-0.9-2-2v-12c0-1.11 0.89-2 2-2h6l2 2h7c1.097 0 2 0.903 2 2h-17v10l2.14-8h17.07l-2.28 8.5c-0.23 0.87-1.01 1.5-1.93 1.5z" fill="#ffa726" fill-rule="nonzero"/><path d="m20.81 8.5203-5.9881 5.5056-3.3464-2.5223-1.383 0.80494 3.2986 3.0311-3.2986 3.0311 1.383 0.80733 3.3464-2.5223 5.9881 5.5032 2.9212-1.4188v-10.801zm0 3.6211v6.3966l-4.2445-3.1983z" fill="#ffe0b2" stroke-width=".97421"/></svg>

<?xml version="1.0" encoding="UTF-8" standalone="no"?>
<!DOCTYPE svg PUBLIC "-//W3C//DTD SVG 1.1//EN" "http://www.w3.org/Graphics/SVG/1.1/DTD/svg11.dtd">
<svg width="100%" height="100%" viewBox="0 0 24 24" version="1.1" xmlns="http://www.w3.org/2000/svg" xmlns:xlink="http://www.w3.org/1999/xlink" xml:space="preserve" style="fill-rule:evenodd;clip-rule:evenodd;stroke-linejoin:round;stroke-miterlimit:1.41421;">
    <path id="path2" d="M19,20L4,20C2.89,20 2,19.1 2,18L2,6C2,4.89 2.89,4 4,4L10,4L12,6L19,6C20.097,6 21,6.903 21,8L4,8L4,18L6.14,10L23.21,10L20.93,18.5C20.7,19.37 19.92,20 19,20Z" style="fill:rgb(100,181,246);fill-rule:nonzero;"/>
    <g id="path4" transform="matrix(0.66157,0,0,0.66157,9.06116,7.67686)">
        <path d="M17,8.5L12.25,12.32L17,16L17,8.5M4.7,18.4L2,16.7L2,7.7L5,6.7L9.3,10.03L18,2L22,4.5L22,20L17,22L9.34,14.66L4.7,18.4M5,14L6.86,12.28L5,10.5L5,14Z" style="fill:rgb(2,119,189);fill-rule:nonzero;"/>
    </g>
</svg>
